X: 1
T: Glonogle
M: 4/4
L: 1/8
R: reel
K: Dmaj
A|d2 fd B2 ed|cABc dAFD|d2 fd B2 ed|cABc d3 A|d2 fd B2 ed|cABc dAFD|d2 fd B2 ed|cABc d3 e|f2 (df) gfed|cABc dAFD|f2 (df) gfed|cABc d2 (de)|f2 (df) gfed|cABc dAFD|dfdf cecA|Bgec d3|
